layout/admin/dist/assets/admin/img/icons/remove.svg

<svg width="20" height="20" viewBox="0 0 20 20" fill="none" xmlns="http://www.w3.org/2000/svg">
<path d="M1.44202 4.375V18.125C1.43531 18.3655 1.48335 18.6048 1.5834 18.8292C1.68345 19.0536 1.83354 19.2587 2.0251 19.4329C2.21665 19.607 2.44593 19.7467 2.69982 19.844C2.95371 19.9413 3.22723 19.9943 3.50477 20H16.653C16.9336 19.9984 17.211 19.9484 17.4691 19.8529C17.7271 19.7574 17.9607 19.6184 18.156 19.4438C18.3514 19.2693 18.5047 19.0628 18.607 18.8363C18.7093 18.6099 18.7585 18.3681 18.7518 18.125V4.375H1.44202ZM7.93319 16.875H6.49071V7.5H7.93319V16.875ZM13.7031 16.875H12.2606V7.5H13.7031V16.875Z" fill="white"/>
<path d="M19.2788 1.875H13.7036V1.25C13.7036 0.918479 13.5516 0.600537 13.2811 0.366116C13.0106 0.131696 12.6437 0 12.2611 0H7.7894C7.43235 0.0310923 7.1015 0.176393 6.86144 0.40753C6.62138 0.638666 6.48937 0.939041 6.49116 1.25V1.875H0.721241C0.529956 1.875 0.346505 1.94085 0.211247 2.05806C0.0759878 2.17527 0 2.33424 0 2.5C0 2.66576 0.0759878 2.82473 0.211247 2.94194C0.346505 3.05915 0.529956 3.125 0.721241 3.125H19.2788C19.47 3.125 19.6535 3.05915 19.7888 2.94194C19.924 2.82473 20 2.66576 20 2.5C20 2.33424 19.924 2.17527 19.7888 2.05806C19.6535 1.94085 19.47 1.875 19.2788 1.875Z" fill="white"/>
</svg>

<svg width="20" height="20" viewBox="0 0 20 20" fill="none" xmlns="http://www.w3.org/2000/svg"><path d="M1.442 4.375v13.75c-.007.24.041.48.141.704.1.225.25.43.442.604s.42.314.675.411c.254.097.527.15.805.156h13.148a2.42 2.42 0 00.816-.147 2.15 2.15 0 00.687-.41c.195-.174.349-.38.451-.607.102-.226.152-.468.145-.711V4.375H1.442zm6.491 12.5H6.491V7.5h1.442v9.375zm5.77 0h-1.442V7.5h1.442v9.375zm5.576-15h-5.575V1.25c0-.332-.152-.65-.423-.884A1.562 1.562 0 0012.261 0H7.79a1.53 1.53 0 00-.928.408 1.16 1.16 0 00-.37.842v.625H.721a.781.781 0 00-.51.183A.586.586 0 000 2.5c0 .166.076.325.211.442a.781.781 0 00.51.183H19.28a.781.781 0 00.51-.183A.586.586 0 0020 2.5a.586.586 0 00-.211-.442.781.781 0 00-.51-.183z" fill="#fff"/></svg>
